X:1701
T:Bogey Reel
R:reel
S:Billy McComiskey
H:
N:
D:Solo Album
Z:Adrian Scahill
M:4/4
L:1/8
K:D
DEFA d2cd|BAFB AFEF|DEFA dfec|dBAF EGFE|\
DEFA dcde|fdcd BAFA|ecef gece|1 dAFA d2FE:|2 dAFAd2cd||\
eAA2 EAA2|ecef g2fe|fdd2 Add2|fdaf d2cd|\
Bee2 Beed|cdef g2fg|afdf gece|dAFA d2cd:||


